X:146
T: Was schleicht dort im naechtlichen Walde
N: D0233
O: Europa, Mitteleuropa, Deutschland, Hohegeiss  Harz
N: Inzipit = Variante zum Lied
R: Jaeger - Lied, Wilderer
M: 6/8
L: 1/16
K: C
G2 | G2G2G2A2A2A2 | G2G4-G4
G2 | c4c2d2d2c2 | B6-B4
G2 | d4e2e3fc2 | B2B4-B4
A2 | G4G2A2G2F2 | E6-E4
c2 | d2c2A2d2c2A2 | A2G4-G4
c2 | B4G2e2e2d2 | c6-c4

